ui/StatusQ/src/assets/img/icons/face-sad.svg

<svg fill="none" height="24" viewBox="0 0 24 24" width="24" xmlns="http://www.w3.org/2000/svg"><g fill="#000"><path d="m17 10.5c0 .8284-.6716 1.5-1.5 1.5s-1.5-.6716-1.5-1.5c0-.82843.6716-1.5 1.5-1.5s1.5.67157 1.5 1.5z"/><path d="m8.5 12c.82843 0 1.5-.6716 1.5-1.5 0-.82843-.67157-1.5-1.5-1.5s-1.5.67157-1.5 1.5c0 .8284.67157 1.5 1.5 1.5z"/><path d="m8.46422 17.2144c.2929.2929.76481.2864 1.10436.0492.68892-.4813 1.52702-.7636 2.43122-.7636.9041 0 1.7422.2823 2.4311.7636.3396.2372.8115.2437 1.1044-.0492s.2955-.7723-.0329-1.0248c-.9698-.7461-2.1844-1.1896-3.5026-1.1896s-2.53285.4435-3.50272 1.1896c-.32832.2525-.32575.7319-.03286 1.0248z"/><path clip-rule="evenodd" d="m12 22c5.5228 0 10-4.4772 10-10 0-5.52285-4.4772-10-10-10-5.52285 0-10 4.47715-10 10 0 5.5228 4.47715 10 10 10zm0-1.5c4.6944 0 8.5-3.8056 8.5-8.5 0-4.69442-3.8056-8.5-8.5-8.5-4.69442 0-8.5 3.80558-8.5 8.5 0 4.6944 3.80558 8.5 8.5 8.5z" fill-rule="evenodd"/></g></svg>

<svg width="24" height="24" viewBox="0 0 24 24" fill="none" xmlns="http://www.w3.org/2000/svg">
<path d="M17 10.5C17 11.3284 16.3284 12 15.5 12C14.6716 12 14 11.3284 14 10.5C14 9.67157 14.6716 9 15.5 9C16.3284 9 17 9.67157 17 10.5Z" fill="black"/>
<path d="M8.5 12C9.32843 12 10 11.3284 10 10.5C10 9.67157 9.32843 9 8.5 9C7.67157 9 7 9.67157 7 10.5C7 11.3284 7.67157 12 8.5 12Z" fill="black"/>
<path d="M8.46422 17.2144C8.75712 17.5073 9.22903 17.5008 9.56858 17.2636C10.2575 16.7823 11.0956 16.5 11.9998 16.5C12.9039 16.5 13.742 16.7823 14.4309 17.2636C14.7705 17.5008 15.2424 17.5073 15.5353 17.2144C15.8282 16.9215 15.8308 16.4421 15.5024 16.1896C14.5326 15.4435 13.318 15 11.9998 15C10.6816 15 9.46695 15.4435 8.49708 16.1896C8.16876 16.4421 8.17133 16.9215 8.46422 17.2144Z" fill="black"/>
<path fill-rule="evenodd" clip-rule="evenodd" d="M12 22C17.5228 22 22 17.5228 22 12C22 6.47715 17.5228 2 12 2C6.47715 2 2 6.47715 2 12C2 17.5228 6.47715 22 12 22ZM12 20.5C16.6944 20.5 20.5 16.6944 20.5 12C20.5 7.30558 16.6944 3.5 12 3.5C7.30558 3.5 3.5 7.30558 3.5 12C3.5 16.6944 7.30558 20.5 12 20.5Z" fill="black"/>
</svg>
